icons/communication/email-dot-24.svg

<svg width="24" height="24" viewBox="0 0 24 24" fill="none" xmlns="http://www.w3.org/2000/svg">
<path d="M20 8C21.6569 8 23 6.65685 23 5C23 3.34315 21.6569 2 20 2C18.3431 2 17 3.34315 17 5C17 6.65685 18.3431 8 20 8Z" fill="black"/>
<path fill-rule="evenodd" clip-rule="evenodd" d="M1.75 4.5C1.61193 4.5 1.5 4.61193 1.5 4.75V5.60156L11.8601 12.6004C11.9446 12.6575 12.0554 12.6575 12.1399 12.6004L15.7989 10.1285C16.1421 9.89665 16.6084 9.98693 16.8402 10.3302C17.0721 10.6734 16.9818 11.1396 16.6386 11.3715L12.9796 13.8433C12.3877 14.2432 11.6123 14.2432 11.0204 13.8433L1.5 7.41177V18.75C1.5 18.8881 1.61193 19 1.75 19H22.25C22.3881 19 22.5 18.8881 22.5 18.75V10.875C22.5 10.4608 22.8358 10.125 23.25 10.125C23.6642 10.125 24 10.4608 24 10.875V18.75C24 19.7165 23.2165 20.5 22.25 20.5H1.75C0.783502 20.5 0 19.7165 0 18.75V4.75C0 3.7835 0.783502 3 1.75 3H13.25C13.6642 3 14 3.33579 14 3.75C14 4.16421 13.6642 4.5 13.25 4.5H1.75Z" fill="black"/>
</svg>

<svg xmlns="http://www.w3.org/2000/svg" width="24" height="24"><path d="M20 8a3 3 0 100-6 3 3 0 000 6z"/><path fill-rule="evenodd" d="M1.75 4.5a.25.25 0 00-.25.25v.852L11.86 12.6a.25.25 0 00.28 0l3.659-2.471a.75.75 0 01.84 1.242l-3.66 2.472c-.591.4-1.367.4-1.959 0L1.5 7.412V18.75c0 .138.112.25.25.25h20.5a.25.25 0 00.25-.25v-7.875a.75.75 0 011.5 0v7.875a1.75 1.75 0 01-1.75 1.75H1.75A1.75 1.75 0 010 18.75v-14C0 3.784.784 3 1.75 3h11.5a.75.75 0 010 1.5H1.75z"/></svg>
